X: 1
T: the Old Man Will Never Die
C: Trad
D: discography
H: Originally a reel.
L: 1/8
M: 4/4
R: Strathspey
S: Paddledoo Collection
S: Pinewoods Collection
K: G
"D7"D | "G"G>B d>B "C"e2- e>g | "G"d/c/B/A/ G>B "D"~A2- A>B | "G"G>B    d>B "Em"e2- e>f | "C"g>a     g>e "Bm"~B3 :|
"D7"d | "G"g>a g>e    d>e d<B | "G"g>a      g>e "D" a>g a<b | "G"g>a    g>e "Em"d>e g<b | "C"a>f     g>e "Bm"~B3 |]
"D7"d | "G"g>a g>e    d>e d<B | "G"g>a      g>e "D" a>g a<b | "G"g<b "C"e<g  "G"d>e g<b | "D"a>f "Em"g>e "Bm"~B3 |]
